X:22
T:Lass of Ballockingle[?],The RH.022
R:Air
S:Rev.R.Harrison’s MS,c1815,Cumbria
N:Beaming original.
O:England
A:Temple Sowerby,Cumbria
Z:vmp.Simon Wilson. Review PJH, 2008.
M:C
L:1/8
Q:2/4=80
K:Em
A>B|c3c (B>AB) d|(e>dc) BA2(EF)|\
G2(g>e) dB (A>B)|(G2E2)E2(AB)|!
c2c2(BA) (Bd)|(ed) (cB)A2(EF)|\
G2(ge) dB (AB)|G2EF E2|!
g|(de) (ga)b2(ag)|(a>gf) ee3B|\
(e>fg) a (b>g)(a>b)|(g>e) (f>g)e2ga|!
(b>a) (gb) (a>g) (e>a)|(g>e) (dB)g3e|\
(dB) (AG) (Ac) (BA)|G2E2 E2|]

